images/icon/dev_copy.svg

<svg height="14" viewBox="0 0 14 14" width="14" xmlns="http://www.w3.org/2000/svg"><g fill="none" fill-rule="evenodd"><path d="m10.708 8.417 3.285 3.1259342.005.46-1.392 1.392-.459-.004-1.4765611-1.552304c.0251111-.1088241.0383815-.2221774.0383815-.3386302zm-5.478-7.2400658c.68684211-.68589474 1.98847645-.76417729 2.74003353-.15407203l.11996647.10807203 1.201 1.201-.037.14c-.56769231-.14584616-1.31176331.10026035-1.80040965.51809194l-.11659035.10790806-1.076 1.075.232.232.624.5940658-2.90817962.001-.14446001.00686658c-.76065191.07268474-1.35553999.7134373-1.35553999 1.49313342l-.00082038.5h-.49917962c-.30116641 0-.58160275.08875597-.81657888.24153777l-1.3922415-1.39060357v-.464l.971-.972.511.511 1.32-1.321-.277-.279.005-.47.928-.928.47-.005.139125.13475.140875.14225z" fill="#59a869" fill-rule="nonzero"/><g transform="translate(1.70882 6)"><path d="m2.5 0h5c.27614237 0 .5.22385763.5.5v5c0 .27614237-.22385763.5-.5.5h-5c-.27614237 0-.5-.22385763-.5-.5v-5c0-.27614237.22385763-.5.5-.5z" fill="#59a869"/><path d="m.5 2h5c.27614237 0 .5.22385763.5.5v5c0 .27614237-.22385763.5-.5.5h-5c-.27614237 0-.5-.22385763-.5-.5v-5c0-.27614237.22385763-.5.5-.5z" fill="#92d7a0"/></g></g></svg>

<?xml version="1.0" encoding="UTF-8"?>
<svg width="14px" height="14px" viewBox="0 0 14 14" version="1.1" xmlns="http://www.w3.org/2000/svg" xmlns:xlink="http://www.w3.org/1999/xlink">
    <title>dev_copy</title>
    <g id="Icon" stroke="none" stroke-width="1" fill="none" fill-rule="evenodd">
        <g id="Visual-Studio-Code" transform="translate(-35.000000, -112.000000)">
            <g id="dev_copy" transform="translate(35.000000, 112.000000)">
                <path d="M10.708,8.417 L13.993,11.5429342 L13.998,12.0029342 L12.606,13.3949342 L12.147,13.3909342 L10.6704389,11.8386302 C10.69555,11.7298061 10.7088204,11.6164528 10.7088204,11.5 L10.708,8.417 Z M5.23,1.1769342 C5.91684211,0.49103946 7.21847645,0.412756911 7.97003353,1.02286217 L8.09,1.1309342 L9.291,2.3319342 L9.254,2.4719342 C8.68630769,2.32608804 7.94223669,2.57219455 7.45359035,2.99002614 L7.337,3.0979342 L6.261,4.1729342 L6.493,4.4049342 L7.117,4.999 L4.20882038,5 L4.06436037,5.00686658 C3.30370846,5.07955132 2.70882038,5.72030388 2.70882038,6.5 L2.708,7 L2.20882038,7 C1.90765397,7 1.62721763,7.08875597 1.3922415,7.24153777 L-8.8817842e-15,5.8509342 L-8.8817842e-15,5.3869342 L0.971,4.4149342 L1.482,4.9259342 L2.802,3.6049342 L2.525,3.3259342 L2.53,2.8559342 L3.458,1.9279342 L3.928,1.9229342 L4.067125,2.0576842 L4.208,2.1999342 L5.23,1.1769342 Z" id="形状" fill="#59A869" fill-rule="nonzero"></path>
                <g id="编组-2" transform="translate(1.708820, 6.000000)">
                    <path d="M2.5,0 L7.5,0 C7.77614237,-5.07265313e-17 8,0.223857625 8,0.5 L8,5.5 C8,5.77614237 7.77614237,6 7.5,6 L2.5,6 C2.22385763,6 2,5.77614237 2,5.5 L2,0.5 C2,0.223857625 2.22385763,5.07265313e-17 2.5,0 Z" id="矩形备份" fill="#59A869"></path>
                    <path d="M0.5,2 L5.5,2 C5.77614237,2 6,2.22385763 6,2.5 L6,7.5 C6,7.77614237 5.77614237,8 5.5,8 L0.5,8 C0.223857625,8 3.38176876e-17,7.77614237 0,7.5 L0,2.5 C-3.38176876e-17,2.22385763 0.223857625,2 0.5,2 Z" id="矩形" fill="#92D7A0"></path>
                </g>
            </g>
        </g>
    </g>
</svg>
